Origami/48x48/apps/appimagekit-gravit-designer.svg

<svg width="48" height="48" version="1.1" viewBox="0 0 48 48" xmlns="http://www.w3.org/2000/svg">
 <path d="m24 4c-1.013894 0.0051765-2.025926 0.087445-3.027344 0.2460938-1.873308 1.7306233-15.279451 15.042218-16.695312 16.580078-0.017889 0.112483-0.034816 0.225117-0.050781 0.33789 0.4026729-0.32909 1.0123769-0.851049 1.7089844-1.482421 0.3434149-0.311254 0.7669505-0.679028 0.9414062-0.81836 0.1744547-0.139332 0.4968245-0.418036 0.7148438-0.61914 0.6055082-0.558533 2.037461-1.82751 2.4570308-2.177735 0.205833-0.171815 1.005645-0.875242 1.777344-1.5625 0.771699-0.687257 1.769269-1.566086 2.216797-1.953125 0.447528-0.387038 1.37567-1.231145 2.0625-1.875 1.324741-1.2418522 5.416553-4.8706879 5.871093-5.207031 0.148489-0.1098764 0.286541-0.1841785 0.306641-0.1640625 0.04443 0.044454-0.213387 0.476972-1.123047 1.8808594-0.381698 0.5890781-1.872 2.8992241-3.3125 5.1328121-1.440502 2.233588-3.228212 5.004592-3.972656 6.158203-0.744443 1.153612-2.389709 3.704376-3.65625 5.667969-1.2665409 1.963594-2.9191486 4.523066-3.6718747 5.689453-0.462262 0.716299-0.8105041 1.28175-1.0585938 1.701172 2.8723347 7.040315 9.4881125 11.842887 17.071924 12.392578 0.571158 0.0066-0.320648-0.0385 0.571158 0.0066 2.49939-9.385597 4.583411-25.57622 10.084373-37.076193 0.231679-0.4843331-0.618918-0.5912187-0.508709-0.8347036-2.712511-1.3227524-5.689195-2.014508-8.707027-2.0234375z" style="fill:#c63166"/>
 <path d="m4.0215 24.418a20 20 0 0 0 -0.0215 0.582 20 20 0 0 0 20 20 20 20 0 0 0 20 -20 20 20 0 0 0 -0.021 -0.418 20 20 0 0 1 -19.979 19.418 20 20 0 0 1 -19.978 -19.582z" opacity=".2"/>
 <path d="m22.761719 4.0722656a20 20 0 0 0 -1.283203 0.1074219 20 20 0 0 1 1.283203 -0.1074219z" style="fill:#d8d342"/>
 <path d="m20.960938 5.2578125a20 20 0 0 0 -1.310547 0.2714844c-3.503908 3.3893767-13.42626 13.24576-15.115235 15.033203a20 20 0 0 0 -0.2519531 1.255859c1.4275235-1.549089 14.78586-14.811055 16.677735-16.560546zm1.322265 1.046875c-0.0201-0.020116-0.158151 0.054186-0.306641 0.1640625-0.45454 0.3363431-4.546352 3.965179-5.871093 5.207031-0.68683 0.643855-1.614972 1.487962-2.0625 1.875-0.447528 0.387039-1.445098 1.265868-2.216797 1.953125-0.771699 0.687258-1.571511 1.390685-1.777344 1.5625-0.4195694 0.350225-1.8515229 1.619202-2.4570311 2.177735-0.2180193 0.201104-0.5403891 0.479808-0.7148438 0.61914-0.1744557 0.139332-0.5979913 0.507106-0.9414062 0.81836-0.6966075 0.631372-1.3063115 1.153334-1.7089844 1.482421a20 20 0 0 0 -0.2070313 2.197266 20 20 0 0 0 1.4726563 7.166016c-0.0010806 0.001826-0.0028293 0.005992-0.0039063 0.007812a20 20 0 0 0 0.0332032 0.070313 20 20 0 0 0 0.0019531 0.001953 20 20 0 0 0 0.2324219 0.496094c0.2235864-0.36795 0.4459196-0.734787 0.7910156-1.269532 0.7527261-1.166387 2.4053341-3.725859 3.671875-5.689453 1.266541-1.963593 2.911807-4.514356 3.65625-5.667969 0.744444-1.153611 2.532154-3.924615 3.972656-6.158203 1.4405-2.233588 2.930802-4.543734 3.3125-5.1328121 0.90966-1.4038874 1.167477-1.8364054 1.123047-1.8808594z" style="opacity:.2"/>
 <path d="m20.960938 4.2578125a20 20 0 0 0 -16.677735 16.560546c1.4275235-1.549089 14.785862-14.811055 16.677735-16.560546z" style="fill:#b8da6c"/>
 <path d="m4.2832031 20.818359c-8.246e-4 8.95e-4 -0.00504 0.0069-0.00586 0.0078a20 20 0 0 0 -0.044922 0.292969 20 20 0 0 1 0.050781 -0.300782z" style="fill:#d8d342"/>
 <path d="m30.488281 5.1191406v0.00391a20 20 0 0 1 0.503907 0.1660156 20 20 0 0 0 -0.503907 -0.1699219z" style="fill:#d8d342"/>
 <path d="m30.992188 5.2890625a20 20 0 0 1 1.527343 0.6542969 20 20 0 0 0 -1.527343 -0.6542969z" style="fill:#d8d342"/>
 <path d="m32.519531 5.9433594a20 20 0 0 1 0.185547 0.082031l2e-3 -0.00195a20 20 0 0 0 -0.1875 -0.080078z" style="fill:#d8d342"/>
 <path d="m22.283203 5.3046875c-0.0201-0.020116-0.158151 0.054186-0.306641 0.1640625-0.45454 0.3363431-4.546352 3.9651792-5.871093 5.207031-0.68683 0.643855-1.614972 1.487962-2.0625 1.875-0.447528 0.387039-1.445098 1.265868-2.216797 1.953125-0.771699 0.687258-1.571511 1.390685-1.777344 1.5625-0.4195696 0.350225-1.8515229 1.619202-2.4570311 2.177735-0.2180193 0.201104-0.5403891 0.479808-0.7148438 0.61914-0.1744557 0.139332-0.5979913 0.507106-0.9414062 0.81836-0.6966075 0.631372-1.3063115 1.153333-1.7089844 1.482421a20 20 0 0 0 -0.2265625 2.835938 20 20 0 0 0 2.5664062 9.779297v-0.04687a20 20 0 0 1 -0.1796874 -0.302739 20 20 0 0 1 -0.3808594 -0.791016 20 20 0 0 1 -0.5175782 -1.103516c0.2480897-0.419422 0.5963318-0.984873 1.0585938-1.701172 0.7527261-1.166387 2.4053341-3.725859 3.671875-5.689453 1.266541-1.963593 2.911807-4.514356 3.65625-5.667969 0.744444-1.153611 2.532154-3.924615 3.972656-6.158203 1.4405-2.233588 2.930802-4.543734 3.3125-5.1328121 0.90966-1.4038874 1.167477-1.8364054 1.123047-1.8808594z" style="fill:#b8da6c"/>
 <path d="m43.869141 26.080078l-17.810547 17.810547a20 20 0 0 0 17.810547 -17.810547z" style="fill:#778b3c"/>
 <path d="m43.869141 26.080078l-17.810547 17.810547a20 20 0 0 0 1.183594 -0.183594l16.46875-16.46875a20 20 0 0 0 0.158203 -1.158203z" style="opacity:.2"/>
 <path d="m32.705078 6.0253906c-0.109769 0.2425426-0.188842 0.4251219-0.419922 0.9082032-5.500962 11.499973-8.968667 23.8886-9.541015 34.078125-0.05239 0.932707-0.12288 2.078568-0.15625 2.544922l-0.02734 0.363281c0.478695 0.043983 0.958825 0.070693 1.439449 0.080078 0.687622-1e-3 1.374732-0.03755 2.058594-0.109375l17.810547-17.810547c0.079742-0.690614 0.123421-1.384916 0.130859-2.080078-0.012087-7.660164-4.398404-14.640499-11.294922-17.974609zm-6.646484 37.865234c9.384482-0.982676 16.805527-8.390695 17.804687-17.773437-0.99916 9.382742-8.420205 16.790761-17.804687 17.773437zm-3.498047 0.0293v0.0078z" style="fill:#eddf36"/>
 <path d="m24 4a20 20 0 0 0 -20 20 20 20 0 0 0 0.0215 0.418 20 20 0 0 1 19.978 -19.418 20 20 0 0 1 19.979 19.582 20 20 0 0 0 0.021 -0.582 20 20 0 0 0 -20 -20z" fill="#ffffff" opacity=".2"/>
</svg>

<svg xmlns="http://www.w3.org/2000/svg" width="48" height="48" version="1.1" viewBox="0 0 48 48">
 <path style="fill:#c63166" d="M 24,4 C 22.986106,4.0051765 21.974074,4.087445 20.972656,4.2460938 19.099348,5.9767171 5.693205,19.288312 4.2773438,20.826172 c -0.017889,0.112483 -0.034816,0.225117 -0.050781,0.33789 0.4026729,-0.32909 1.0123769,-0.851049 1.7089844,-1.482421 0.3434149,-0.311254 0.7669505,-0.679028 0.9414062,-0.81836 0.1744547,-0.139332 0.4968245,-0.418036 0.7148438,-0.61914 0.6055082,-0.558533 2.037461,-1.82751 2.4570308,-2.177735 0.205833,-0.171815 1.005645,-0.875242 1.777344,-1.5625 0.771699,-0.687257 1.769269,-1.566086 2.216797,-1.953125 0.447528,-0.387038 1.37567,-1.231145 2.0625,-1.875 1.324741,-1.2418522 5.416553,-4.8706879 5.871093,-5.207031 0.148489,-0.1098764 0.286541,-0.1841785 0.306641,-0.1640625 0.04443,0.044454 -0.213387,0.476972 -1.123047,1.8808594 -0.381698,0.5890781 -1.872,2.8992241 -3.3125,5.1328121 -1.440502,2.233588 -3.228212,5.004592 -3.972656,6.158203 -0.744443,1.153612 -2.389709,3.704376 -3.65625,5.667969 -1.2665409,1.963594 -2.9191486,4.523066 -3.6718747,5.689453 -0.462262,0.716299 -0.8105041,1.28175 -1.0585938,1.701172 2.8723347,7.040315 9.4881125,11.842887 17.0719235,12.392578 0.571158,0.0066 -0.320648,-0.0385 0.571158,0.0066 2.49939,-9.385597 4.583411,-25.57622 10.084373,-37.0761929 C 33.447415,6.373808 32.596818,6.2669224 32.707027,6.0234375 29.994516,4.7006851 27.017832,4.0089295 24,4 Z"/>
 <path opacity=".2" d="m4.0215 24.418a20 20 0 0 0 -0.0215 0.582 20 20 0 0 0 20 20 20 20 0 0 0 20 -20 20 20 0 0 0 -0.021 -0.418 20 20 0 0 1 -19.979 19.418 20 20 0 0 1 -19.978 -19.582z"/>
 <path style="fill:#d8d342" d="M 22.761719,4.0722656 A 20,20 0 0 0 21.478516,4.1796875 20,20 0 0 1 22.761719,4.0722656 Z"/>
 <path style="opacity:0.2" d="M 20.960938 5.2578125 A 20 20 0 0 0 19.650391 5.5292969 C 16.146483 8.9186736 6.2241309 18.775057 4.5351562 20.5625 A 20 20 0 0 0 4.2832031 21.818359 C 5.7107266 20.26927 19.069063 7.0073042 20.960938 5.2578125 z M 22.283203 6.3046875 C 22.263103 6.2845715 22.125052 6.3588735 21.976562 6.46875 C 21.522022 6.8050931 17.43021 10.433929 16.105469 11.675781 C 15.418639 12.319636 14.490497 13.163743 14.042969 13.550781 C 13.595441 13.93782 12.597871 14.816649 11.826172 15.503906 C 11.054473 16.191164 10.254661 16.894591 10.048828 17.066406 C 9.6292586 17.416631 8.1973051 18.685608 7.5917969 19.244141 C 7.3737776 19.445245 7.0514078 19.723949 6.8769531 19.863281 C 6.7024974 20.002613 6.2789618 20.370387 5.9355469 20.681641 C 5.2389394 21.313013 4.6292354 21.834975 4.2265625 22.164062 A 20 20 0 0 0 4.0195312 24.361328 A 20 20 0 0 0 5.4921875 31.527344 C 5.4911069 31.52917 5.4893582 31.533336 5.4882812 31.535156 A 20 20 0 0 0 5.5214844 31.605469 A 20 20 0 0 0 5.5234375 31.607422 A 20 20 0 0 0 5.7558594 32.103516 C 5.9794458 31.735566 6.201779 31.368729 6.546875 30.833984 C 7.2996011 29.667597 8.9522091 27.108125 10.21875 25.144531 C 11.485291 23.180938 13.130557 20.630175 13.875 19.476562 C 14.619444 18.322951 16.407154 15.551947 17.847656 13.318359 C 19.288156 11.084771 20.778458 8.774625 21.160156 8.1855469 C 22.069816 6.7816595 22.327633 6.3491415 22.283203 6.3046875 z"/>
 <path style="fill:#b8da6c" d="M 20.960938,4.2578125 A 20,20 0 0 0 4.2832031,20.818359 C 5.7107266,19.26927 19.069065,6.0073042 20.960938,4.2578125 Z"/>
 <path style="fill:#d8d342" d="m 4.2832031,20.818359 c -8.246e-4,8.95e-4 -0.00504,0.0069 -0.00586,0.0078 a 20,20 0 0 0 -0.044922,0.292969 20,20 0 0 1 0.050781,-0.300782 z"/>
 <path style="fill:#d8d342" d="m 30.488281,5.1191406 0,0.00391 a 20,20 0 0 1 0.503907,0.1660156 20,20 0 0 0 -0.503907,-0.1699219 z"/>
 <path style="fill:#d8d342" d="M 30.992188,5.2890625 A 20,20 0 0 1 32.519531,5.9433594 20,20 0 0 0 30.992188,5.2890625 Z"/>
 <path style="fill:#d8d342" d="m 32.519531,5.9433594 a 20,20 0 0 1 0.185547,0.082031 c 0,0 0.002,-0.00195 0.002,-0.00195 a 20,20 0 0 0 -0.1875,-0.080078 z"/>
 <path style="fill:#b8da6c" d="m 22.283203,5.3046875 c -0.0201,-0.020116 -0.158151,0.054186 -0.306641,0.1640625 -0.45454,0.3363431 -4.546352,3.9651792 -5.871093,5.207031 -0.68683,0.643855 -1.614972,1.487962 -2.0625,1.875 -0.447528,0.387039 -1.445098,1.265868 -2.216797,1.953125 -0.771699,0.687258 -1.571511,1.390685 -1.777344,1.5625 -0.4195696,0.350225 -1.8515229,1.619202 -2.4570311,2.177735 -0.2180193,0.201104 -0.5403891,0.479808 -0.7148438,0.61914 -0.1744557,0.139332 -0.5979913,0.507106 -0.9414062,0.81836 -0.6966075,0.631372 -1.3063115,1.153333 -1.7089844,1.482421 A 20,20 0 0 0 4,24 20,20 0 0 0 6.5664062,33.779297 l 0,-0.04687 A 20,20 0 0 1 6.3867188,33.429688 20,20 0 0 1 6.0058594,32.638672 20,20 0 0 1 5.4882812,31.535156 c 0.2480897,-0.419422 0.5963318,-0.984873 1.0585938,-1.701172 0.7527261,-1.166387 2.4053341,-3.725859 3.671875,-5.689453 1.266541,-1.963593 2.911807,-4.514356 3.65625,-5.667969 0.744444,-1.153611 2.532154,-3.924615 3.972656,-6.158203 1.4405,-2.233588 2.930802,-4.543734 3.3125,-5.1328121 0.90966,-1.4038874 1.167477,-1.8364054 1.123047,-1.8808594 z"/>
 <path style="fill:#778b3c" d="M 43.869141 26.080078 L 26.058594 43.890625 A 20 20 0 0 0 43.869141 26.080078 z"/>
 <path style="opacity:0.2" d="M 43.869141 26.080078 L 26.058594 43.890625 A 20 20 0 0 0 27.242188 43.707031 L 43.710938 27.238281 A 20 20 0 0 0 43.869141 26.080078 z"/>
 <path style="fill:#eddf36" d="M 32.705078,6.0253906 C 32.595309,6.2679332 32.516236,6.4505125 32.285156,6.9335938 26.784194,18.433567 23.316489,30.822194 22.744141,41.011719 c -0.05239,0.932707 -0.12288,2.078568 -0.15625,2.544922 l -0.02734,0.363281 C 23.039246,43.963905 23.519376,43.990615 24,44 c 0.687622,-0.001 1.374732,-0.03755 2.058594,-0.109375 L 43.869141,26.080078 C 43.948883,25.389464 43.992562,24.695162 44,24 43.987913,16.339836 39.601596,9.3595013 32.705078,6.0253906 Z M 26.058594,43.890625 C 35.443076,42.907949 42.864121,35.49993 43.863281,26.117188 42.864121,35.49993 35.443076,42.907949 26.058594,43.890625 Z m -3.498047,0.0293 c 0,0 0,-0.0073 0,0.0078 z"/>
 <path fill="#ffffff" opacity=".2" d="m24 4a20 20 0 0 0 -20 20 20 20 0 0 0 0.0215 0.418 20 20 0 0 1 19.978 -19.418 20 20 0 0 1 19.979 19.582 20 20 0 0 0 0.021 -0.582 20 20 0 0 0 -20 -20z"/>
</svg>
